modules/hawcons-stroke/icons/icon-48-notebook.svg

<?xml version="1.0" encoding="UTF-8" standalone="no"?>
<svg width="32px" height="32px" viewBox="0 0 32 32" version="1.1" xmlns="http://www.w3.org/2000/svg" xmlns:xlink="http://www.w3.org/1999/xlink" xmlns:sketch="http://www.bohemiancoding.com/sketch/ns">
    <!-- Generator: Sketch 3.0.3 (7891) - http://www.bohemiancoding.com/sketch -->
    <title>icon 48 notebook</title>
    <desc>Created with Sketch.</desc>
    <defs></defs>
    <g id="Page-1" stroke="none" stroke-width="1" fill="none" fill-rule="evenodd" sketch:type="MSPage">
        <g id="icon-48-notebook" sketch:type="MSArtboardGroup" fill="#929292">
            <path d="M7,19 L7,22 L6,22 L6,23 L7,23 L7,23 L7,26 L6,26 L6,27 L7,27 L7,27.9926701 C7,29.1012878 7.89092539,30 8.99742191,30 L24.0025781,30 C25.1057238,30 26,29.1016617 26,27.9926701 L26,5.00732994 C26,3.89871223 25.1090746,3 24.0025781,3 L8.99742191,3 C7.89427625,3 7,3.89833832 7,5.00732994 L7,6 L6,6 L6,7 L7,7 L7,10 L6,10 L6,11 L7,11 L7,14 L6,14 L6,15 L7,15 L7,18 L6,18 L6,19 L7,19 L7,19 Z M8,19 L8,22 L9,22 L9,23 L8,23 L8,26 L9,26 L9,27 L8,27 L8,28.004543 C8,28.5543187 8.45470893,29 8.9999602,29 L24.0000398,29 C24.5523026,29 25,28.5447371 25,28.004543 L25,4.99545703 C25,4.44568129 24.5452911,4 24.0000398,4 L8.9999602,4 C8.44769743,4 8,4.45526288 8,4.99545703 L8,6 L9,6 L9,7 L8,7 L8,10 L9,10 L9,11 L8,11 L8,14 L9,14 L9,15 L8,15 L8,15 L8,18 L9,18 L9,19 L8,19 L8,19 Z M11,8 L11,9 L22,9 L22,8 L11,8 L11,8 Z M12,12 L12,13 L21,13 L21,12 L12,12 L12,12 Z" id="notebook" sketch:type="MSShapeGroup"></path>
        </g>
    </g>
</svg>

<svg width="32" height="32" viewBox="0 0 32 32" xmlns="http://www.w3.org/2000/svg"><path d="M7 19v3H6v1h1v3H6v1h1v.993A2 2 0 0 0 8.997 30h15.006A2.002 2.002 0 0 0 26 27.993V5.007A2 2 0 0 0 24.003 3H8.997A2.002 2.002 0 0 0 7 5.007V6H6v1h1v3H6v1h1v3H6v1h1v3H6v1h1zm1 0v3h1v1H8v3h1v1H8v1.005c0 .55.455.995 1 .995h15c.552 0 1-.455 1-.995V4.995c0-.55-.455-.995-1-.995H9c-.552 0-1 .455-1 .995V6h1v1H8v3h1v1H8v3h1v1H8v3h1v1H8zm3-11v1h11V8H11zm1 4v1h9v-1h-9z" fill="#929292" fill-rule="evenodd"/></svg>
